X: 1
T:Cat:holic Bill's -- Jig
M:6/8
L:1/8
R:jig
B:Ryan's Mammoth Collection
N:90 471
Z:Contributed by Ray Davies,  ray:davies99.freeserve.co.uk
K:G
ug|\
eAA BGG | GBd dcB | egg dgg | BGB dcB |
eAA BGG | GBd dcB | (e/f/g/)e3/2 dcB | AGG G2:|
|:ue|\
eaa aga | egg ged | egg dgg | BAB dcB |
eaa aga | egg ged | (e/f/g/)e3/2 dcB | AGG G2:|
